Adwaita++-Light/panel/16/si-syncthing-2.svg

<svg height="16" width="16" xmlns="http://www.w3.org/2000/svg">
  <path d="m11.5 1.9378222a7 7 0 0 0 -9.5621778 2.5621778 7 7 0 0 0 2.5621778 9.562178 7 7 0 0 0 9.562178-2.562178 7 7 0 0 0 -2.562178-9.5621778zm-1 1.7320508a5 5 0 0 1 2.222308 5.9672553 1.5 1.5 0 0 1 .223844 1.7958847 1.5 1.5 0 0 1 -1.979426.584717 5 5 0 0 1 -3.5290736.948472 1.5 1.5 0 0 1 -2.0046397.47995 1.5 1.5 0 0 1 -.7031109-1.668895 5 5 0 0 1 -1.0600288-6.277257 5 5 0 0 1 .0446602-.0734475 1.5 1.5 0 0 1 -.1606856-1.7255906 1.5 1.5 0 0 1 2.0490381-.5490381 1.5 1.5 0 0 1 .3579764.2901229 5 5 0 0 1 4.5391379.2278263zm-.5.8660254a4 4 0 0 0 -3.6498052-.1744458 1.5 1.5 0 0 1 -.198271.8395093 1.5 1.5 0 0 1 -.0336563.050482l1.5829158 2.0122156a1.5 1.5 0 0 1 1.2318294.1203151 1.5 1.5 0 0 1 .7229226 1.5720801l1.0182567.5878908a1.5 1.5 0 0 1 1.137501-.3491159 4 4 0 0 0 -1.811693-4.6589312zm-4.6669763 1.3334401a1.5 1.5 0 0 1 -.7488205.0548076 4 4 0 0 0 -.0483048.0758539 4 4 0 0 0 .7578253 4.941314 1.5 1.5 0 0 1 1.1623308-.267122l.5878908-1.0182567a1.5 1.5 0 0 1 -.1599707-1.7229226 1.5 1.5 0 0 1 .0336563-.0504821zm3.8229116 3.9527416a1.5 1.5 0 0 1 -1.2459646.3338549l-.5878908 1.018257a1.5 1.5 0 0 1 .3479206.80754 4 4 0 0 0 2.6039855-.697736 1.5 1.5 0 0 1 -.09979-.874025z" fill="#444"/>
</svg>

<svg xmlns="http://www.w3.org/2000/svg" width="16" height="16" version="1.1">
 <defs>
  <style id="current-color-scheme" type="text/css">
   .ColorScheme-Text { color:#444444; } .ColorScheme-Highlight { color:#4285f4; }
  </style>
 </defs>
 <path style="fill:currentColor" class="ColorScheme-Text" d="M 11.5,1.9378222 A 7,7 0 0 0 1.9378222,4.5 7,7 0 0 0 4.5,14.062178 7,7 0 0 0 14.062178,11.5 7,7 0 0 0 11.5,1.9378222 Z m -1,1.7320508 a 5,5 0 0 1 2.222308,5.9672553 1.5,1.5 0 0 1 0.223844,1.7958847 1.5,1.5 0 0 1 -1.979426,0.584717 5,5 0 0 1 -3.5290736,0.948472 1.5,1.5 0 0 1 -2.0046397,0.47995 A 1.5,1.5 0 0 1 4.7299018,11.777257 5,5 0 0 1 3.669873,5.5 5,5 0 0 1 3.7145332,5.4265525 1.5,1.5 0 0 1 3.5538476,3.7009619 1.5,1.5 0 0 1 5.6028857,3.1519238 1.5,1.5 0 0 1 5.9608621,3.4420467 5,5 0 0 1 10.5,3.669873 Z M 10,4.5358984 A 4,4 0 0 0 6.3501948,4.3614526 1.5,1.5 0 0 1 6.1519238,5.2009619 1.5,1.5 0 0 1 6.1182675,5.2514439 L 7.7011833,7.2636595 A 1.5,1.5 0 0 1 8.9330127,7.3839746 1.5,1.5 0 0 1 9.6559353,8.9560547 L 10.674192,9.5439455 A 1.5,1.5 0 0 1 11.811693,9.1948296 4,4 0 0 0 10,4.5358984 Z M 5.3330237,5.8693385 A 1.5,1.5 0 0 1 4.5842032,5.9241461 4,4 0 0 0 4.5358984,6 4,4 0 0 0 5.2937237,10.941314 1.5,1.5 0 0 1 6.4560545,10.674192 L 7.0439453,9.6559353 A 1.5,1.5 0 0 1 6.8839746,7.9330127 1.5,1.5 0 0 1 6.9176309,7.8825306 L 5.3330237,5.8693385 Z M 9.1559353,9.8220801 A 1.5,1.5 0 0 1 7.9099707,10.155935 l -0.5878908,1.018257 a 1.5,1.5 0 0 1 0.3479206,0.80754 4,4 0 0 0 2.6039855,-0.697736 1.5,1.5 0 0 1 -0.09979,-0.874025 L 9.1559353,9.8220801 Z"/>
</svg>
